assets/img/braze_icons/sun-setting-03.svg

<svg fill="none" height="24" viewBox="0 0 24 24" width="24" xmlns="http://www.w3.org/2000/svg"><g fill="#801ed7"><path d="m12 2c.5523 0 1 .44772 1 1v2c0 .55228-.4477 1-1 1s-1-.44772-1-1v-2c0-.55228.4477-1 1-1z"/><path d="m13.5663 21.8229c-.9471-.4305-2.1854-.4305-3.1324 0-1.47296.6695-3.31472.6695-4.78764 0-.50279-.2286-.7251-.8214-.49657-1.3242.22854-.5028.82139-.7251 1.32417-.4966.94708.4305 2.18532.4305 3.1324 0 1.47294-.6695 3.31464-.6695 4.78764 0 .947.4305 2.1853.4305 3.1324 0 .5027-.2285 1.0956-.0062 1.3241.4966.2286.5028.0062 1.0956-.4965 1.3242-1.473.6695-3.3147.6695-4.7876 0z"/><path d="m2 12c-.55228 0-1 .4477-1 1s.44772 1 1 1h2c.55228 0 1-.4477 1-1s-.44772-1-1-1z"/><path d="m4.1928 5.1928c.39052-.39053 1.02369-.39053 1.41421 0l1.41421 1.41421c.39053.39052.39053 1.02369 0 1.41421-.39052.39053-1.02369.39053-1.41421 0l-1.41421-1.41421c-.39053-.39052-.39053-1.02369 0-1.41421z"/><path d="m19.8069 6.60701c.3905-.39052.3905-1.02369 0-1.41421-.3906-.39053-1.0237-.39053-1.4142 0l-1.4143 1.41421c-.3905.39052-.3905 1.02369 0 1.41421.3906.39053 1.0237.39053 1.4143 0z"/><path d="m19 13c0-.5523.4477-1 1-1h2c.5523 0 1 .4477 1 1s-.4477 1-1 1h-2c-.5523 0-1-.4477-1-1z"/><path d="m6 13c0-3.31371 2.68629-6 6-6 3.3137 0 6 2.68629 6 6 0 .5523-.4477 1-1 1h-10c-.55228 0-1-.4477-1-1z"/><path d="m2.5139 18.3229c.94708-.4305 2.18532-.4305 3.1324 0 1.47292.6695 3.31468.6695 4.7876 0 .9471-.4305 2.1853-.4305 3.1324 0 1.4729.6695 3.3147.6695 4.7876 0 .9471-.4305 2.1853-.4305 3.1324 0 .5028.2285 1.0956.0062 1.3242-.4966.2285-.5028.0062-1.0956-.4966-1.3242-1.4729-.6695-3.3147-.6695-4.7876 0-.9471.4305-2.1853.4305-3.1324 0-1.4729-.6695-3.3147-.6695-4.7876 0-.94708.4305-2.18532.4305-3.1324 0-1.47292-.6695-3.31468-.6695-4.7876 0-.50279.2286-.725105.8214-.49657 1.3242.22854.5028.82139.7251 1.32417.4966z"/></g></svg>

<svg width="24" height="24" viewBox="0 0 24 24" fill="none" xmlns="http://www.w3.org/2000/svg">
<path d="M12 2C12.5523 2 13 2.44772 13 3V5C13 5.55228 12.5523 6 12 6C11.4477 6 11 5.55228 11 5V3C11 2.44772 11.4477 2 12 2Z" fill="#801ED7"/>
<path d="M13.5663 21.8229C12.6192 21.3924 11.3809 21.3924 10.4339 21.8229C8.96094 22.4924 7.11918 22.4924 5.64626 21.8229C5.14347 21.5943 4.92116 21.0015 5.14969 20.4987C5.37823 19.9959 5.97108 19.7736 6.47386 20.0021C7.42094 20.4326 8.65918 20.4326 9.60626 20.0021C11.0792 19.3326 12.9209 19.3326 14.3939 20.0021C15.3409 20.4326 16.5792 20.4326 17.5263 20.0021C18.029 19.7736 18.6219 19.9959 18.8504 20.4987C19.079 21.0015 18.8566 21.5943 18.3539 21.8229C16.8809 22.4924 15.0392 22.4924 13.5663 21.8229Z" fill="#801ED7"/>
<path d="M2 12C1.44772 12 1 12.4477 1 13C1 13.5523 1.44772 14 2 14H4C4.55228 14 5 13.5523 5 13C5 12.4477 4.55228 12 4 12H2Z" fill="#801ED7"/>
<path d="M4.1928 5.1928C4.58332 4.80227 5.21649 4.80227 5.60701 5.1928L7.02122 6.60701C7.41175 6.99753 7.41175 7.6307 7.02122 8.02122C6.6307 8.41175 5.99753 8.41175 5.60701 8.02122L4.1928 6.60701C3.80227 6.21649 3.80227 5.58332 4.1928 5.1928Z" fill="#801ED7"/>
<path d="M19.8069 6.60701C20.1974 6.21649 20.1974 5.58332 19.8069 5.1928C19.4163 4.80227 18.7832 4.80227 18.3927 5.1928L16.9784 6.60701C16.5879 6.99753 16.5879 7.6307 16.9784 8.02122C17.369 8.41175 18.0021 8.41175 18.3927 8.02122L19.8069 6.60701Z" fill="#801ED7"/>
<path d="M19 13C19 12.4477 19.4477 12 20 12H22C22.5523 12 23 12.4477 23 13C23 13.5523 22.5523 14 22 14H20C19.4477 14 19 13.5523 19 13Z" fill="#801ED7"/>
<path d="M6 13C6 9.68629 8.68629 7 12 7C15.3137 7 18 9.68629 18 13C18 13.5523 17.5523 14 17 14H7C6.44772 14 6 13.5523 6 13Z" fill="#801ED7"/>
<path d="M2.5139 18.3229C3.46098 17.8924 4.69922 17.8924 5.6463 18.3229C7.11922 18.9924 8.96098 18.9924 10.4339 18.3229C11.381 17.8924 12.6192 17.8924 13.5663 18.3229C15.0392 18.9924 16.881 18.9924 18.3539 18.3229C19.301 17.8924 20.5392 17.8924 21.4863 18.3229C21.9891 18.5514 22.5819 18.3291 22.8105 17.8263C23.039 17.3235 22.8167 16.7307 22.3139 16.5021C20.841 15.8326 18.9992 15.8326 17.5263 16.5021C16.5792 16.9326 15.341 16.9326 14.3939 16.5021C12.921 15.8326 11.0792 15.8326 9.6063 16.5021C8.65922 16.9326 7.42098 16.9326 6.4739 16.5021C5.00098 15.8326 3.15922 15.8326 1.6863 16.5021C1.18351 16.7307 0.961195 17.3235 1.18973 17.8263C1.41827 18.3291 2.01112 18.5514 2.5139 18.3229Z" fill="#801ED7"/>
</svg>
